X: 1286
T: Black Cockatoo in the Baobab Tree
C:Bob Rummery, Sorrento, WA
B: australian traditional tunes wiki
M:6/8
L:1/8
R: Jig
Q: 3/8=100
K:G
V:1 
B2c|:"G"d2b bag|e2d "Am"c2A|"D"d2d def|"G"gag "D"e2d|
"G"B2db2a|g2f "Am"e2c|"D7"d2d def|1"G"g3B2c:|2"G"g3f2g||
|:"D"a2a agf|"G"gbge2d|Bcd bgd|GBd"D"A3|
a2a agf|"G"gbge2d|gfe dBG|"D7"ABA "G"G3:|
% abcbook-tune_id 6342d53aa6ade72223be434e


% abcbook-boost 0
% abcbook-tablature 
% abcbook-transpose 
% abcbook-lastupdated 1665324357442
% abcbook-soundfonts 
% abcbook-repeats 1
% NFF Book 2008

